build/category/BusSolid.svg

<svg xmlns="http://www.w3.org/2000/svg" fill="none" viewBox="0 0 24 24" focusable="false"><path d="M0 0H24V24H0z"/><path fill="#74767B" fill-rule="evenodd" d="M3.00935 12.1491C3.00446 12.1033 3.00195 12.0567 3.00195 12.0096L3.00195 5.45422C3.00195 3.79737 4.3451 2.45422 6.00195 2.45422L18.0004 2.45422C19.6572 2.45422 21.0004 3.79737 21.0004 5.45422L21.0004 14.2326C21.0004 14.6744 20.6422 15.0326 20.2004 15.0326L18.0166 15.0326C17.6576 15.0326 17.3666 15.3236 17.3666 15.6826C17.3666 16.0415 17.6576 16.3326 18.0166 16.3326L20.2004 16.3326C20.6422 16.3326 21.0004 16.6907 21.0004 17.1326L21.0004 18.7444L21.0003 18.7539L21.0003 20.7084C21.0003 21.4264 20.4183 22.0084 19.7003 22.0084L18.55 22.0084C17.832 22.0084 17.25 21.4264 17.25 20.7084L17.25 18.8316C17.2434 18.8096 17.2374 18.7874 17.2321 18.765C16.8513 17.1526 15.4009 15.953 13.671 15.9571L11.9979 15.9611L10.3421 15.9611C8.6166 15.9611 7.17156 17.1581 6.79038 18.7659C6.78623 18.7834 6.78165 18.8008 6.77667 18.8181L6.77667 20.7084C6.77667 21.4264 6.19464 22.0084 5.47667 22.0084L4.32637 22.0084C3.6084 22.0084 3.02637 21.4264 3.02637 20.7084L3.02637 18.865C3.02042 18.8256 3.01733 18.7853 3.01733 18.7444L3.01733 17.1326C3.01733 16.6907 3.37551 16.3326 3.81733 16.3326L6.00622 16.3326C6.36521 16.3326 6.65622 16.0415 6.65622 15.6826C6.65622 15.3236 6.36521 15.0326 6.00622 15.0326L3.81733 15.0326C3.37551 15.0326 3.01733 14.6744 3.01733 14.2326L3.01733 12.2718C3.01733 12.2308 3.0137 12.1899 3.00935 12.1491ZM6.00195 3.75422L18.0004 3.75422C18.9392 3.75422 19.7004 4.51534 19.7004 5.45422L19.7004 11.2C19.7004 11.6418 19.3422 12 18.9004 12L5.10195 12C4.66012 12 4.30195 11.6418 4.30195 11.2L4.30195 5.45422C4.30195 4.51534 5.06307 3.75422 6.00195 3.75422ZM6.99668 5.04736C6.63769 5.04736 6.34668 5.33838 6.34668 5.69736C6.34668 6.05635 6.63769 6.34736 6.99668 6.34736L17.028 6.34736C17.3869 6.34736 17.678 6.05635 17.678 5.69736C17.678 5.33838 17.3869 5.04736 17.028 5.04736L6.99668 5.04736ZM15.2077 19.5443C15.6577 19.5443 16.0314 19.1622 15.866 18.7437C15.5213 17.8714 14.6695 17.2547 13.6741 17.2571L11.9986 17.2611L10.3421 17.2611C9.35066 17.2611 8.50305 17.8749 8.15772 18.7427C7.99114 19.1613 8.36501 19.5443 8.81555 19.5443L15.2077 19.5443Z"/></svg>

<svg xmlns="http://www.w3.org/2000/svg" fill="none" viewBox="0 0 24 24" focusable="false"><path fill="#74767B" fill-rule="evenodd" d="M3 12.14V5.45c0-1.66 1.34-3 3-3h12c1.65 0 3 1.34 3 3v8.78c0 .44-.36.8-.8.8h-2.19c-.36 0-.65.29-.65.65s.29.65.65.65h2.19c.44 0 .8.36.8.8v3.57c0 .72-.59 1.3-1.3 1.3h-1.16c-.71 0-1.29-.58-1.29-1.3v-1.87c-.01-.03-.02-.05-.02-.07a3.66 3.66 0 0 0-3.56-2.81l-1.68.01h-1.65c-1.73 0-3.17 1.19-3.55 2.8-.01.02-.01.04-.02.05v1.89c0 .72-.58 1.3-1.3 1.3H4.32c-.72 0-1.3-.58-1.3-1.3v-1.84c0-.04-.01-.08-.01-.12v-1.61c0-.44.36-.8.8-.8H6c.36 0 .65-.29.65-.65s-.29-.65-.65-.65H3.81c-.44 0-.8-.36-.8-.8v-1.96c0-.04 0-.09-.01-.13m3-8.39h12c.93 0 1.7.76 1.7 1.7v5.75c0 .44-.36.8-.8.8H5.1c-.44 0-.8-.36-.8-.8V5.45c0-.94.76-1.7 1.7-1.7m.99 1.29c-.36 0-.65.29-.65.65s.29.65.65.65h10.03c.36 0 .65-.29.65-.65s-.29-.65-.65-.65zm8.21 14.5c.45 0 .83-.38.66-.8-.34-.87-1.2-1.49-2.19-1.49l-1.68.01h-1.65c-.99 0-1.84.61-2.19 1.48-.16.42.21.8.66.8z"/></svg>
